rospo-icon-theme-classic-common/64x64/places/folder-red-script.svg

<svg height="64" width="64" xmlns="http://www.w3.org/2000/svg"><rect height="32" opacity=".2" rx="2.5" width="50" x="7" y="24"/><path d="m7 44.5c0 1.385 1.115 2.5 2.5 2.5h45c1.385 0 2.5-1.115 2.5-2.5v-27c0-1.385-1.115-2.5-2.5-2.5h-25.5v-2.5c0-1.385-1.115-2.5-2.5-2.5h-17c-1.385 0-2.5 1.115-2.5 2.5" fill="#bf4b4b"/><rect height="32" opacity=".2" rx="2.5" width="50" x="7" y="22"/><rect fill="#e4e4e4" height="20" rx="2.5" width="44" x="10" y="18"/><rect fill="#e25252" height="32" rx="2.5" width="50" x="7" y="23"/><path d="m9.5 10c-1.385 0-2.5 1.115-2.5 2.5v1c0-1.385 1.115-2.5 2.5-2.5h17c1.385 0 2.5 1.115 2.5 2.5v-1c0-1.385-1.115-2.5-2.5-2.5zm19.5 5v1h25.5c1.39 0 2.5 1.115 2.5 2.5v-1c0-1.385-1.11-2.5-2.5-2.5z" fill="#fff" opacity=".1"/><path d="m23 30v18h18v-18z" fill="#4f1d1d"/><g fill="#e25252"><path d="m31 38h4v1h-4z"/><path d="m27 32h1v7h-1z"/><path d="m26.5 33c-.83 0-1.5.67-1.5 1.5s.67 1.5 1.5 1.5h1.5.5c.28 0 .5.22.5.5s-.22.51-.5.5h-.5-1.5-1.41c.21.58.76 1 1.41 1h1.5.5c.83 0 1.5-.67 1.5-1.5s-.67-1.5-1.5-1.5h-.5-1.5c-.28 0-.5-.22-.5-.5s.22-.5.5-.5h1.5.5 1.41c-.21-.58-.76-1-1.41-1h-.5z"/></g></svg>

<svg xmlns="http://www.w3.org/2000/svg" width="64" height="64" version="1.1">
 <rect style="opacity:0.2" width="50" height="32" x="7" y="24" rx="2.5" ry="2.5"/>
 <path style="fill:#bf4b4b" d="M 7,44.5 C 7,45.885 8.115,47 9.5,47 H 54.5 C 55.885,47 57,45.885 57,44.5 V 17.5 C 57,16.115 55.885,15 54.5,15 H 29 V 12.5 C 29,11.115 27.885,10 26.5,10 H 9.5 C 8.115,10 7,11.115 7,12.5"/>
 <rect style="opacity:0.2" width="50" height="32" x="7" y="22" rx="2.5" ry="2.5"/>
 <rect style="fill:#dcdcdc" width="44" height="20" x="10" y="18" rx="2.5" ry="2.5"/>
 <rect style="fill:#e25252" width="50" height="32" x="7" y="23" rx="2.5" ry="2.5"/>
 <path style="opacity:0.1;fill:#ffffff" d="M 9.5,10 C 8.115,10 7,11.115 7,12.5 V 13.5 C 7,12.115 8.115,11 9.5,11 H 26.5 C 27.885,11 29,12.115 29,13.5 V 12.5 C 29,11.115 27.885,10 26.5,10 Z M 29,15 V 16 H 54.5 C 55.89,16 57,17.115 57,18.5 V 17.5 C 57,16.115 55.89,15 54.5,15 Z"/>
 <path style="fill:#4f1d1d" d="M 23,30 V 48 H 41 V 30 Z"/>
 <g style="fill:#e25252">
  <path style="fill:#e25252" d="M 31,38 H 35 V 39 H 31 Z"/>
  <rect style="fill:#e25252" width="1" height="7" x="27" y="32"/>
  <path style="fill:#e25252" d="M 26.5,33 C 25.67,33 25,33.67 25,34.5 25,35.33 25.67,36 26.5,36 H 28 28.5 C 28.78,36 29,36.22 29,36.5 29,36.78 28.78,37.01 28.5,37 H 28 26.5 25.09 C 25.3,37.58 25.85,38 26.5,38 H 28 28.5 C 29.33,38 30,37.33 30,36.5 30,35.67 29.33,35 28.5,35 H 28 26.5 C 26.22,35 26,34.78 26,34.5 26,34.22 26.22,34 26.5,34 H 28 28.5 29.91 C 29.7,33.42 29.15,33 28.5,33 H 28 Z"/>
 </g>
</svg>
